actions/24/document-open-recent.svg

<?xml version="1.0" encoding="UTF-8" standalone="no"?>
<!-- Created with Inkscape (http://www.inkscape.org/) -->

<svg
   xmlns:svg="http://www.w3.org/2000/svg"
   xmlns="http://www.w3.org/2000/svg"
   xmlns:xlink="http://www.w3.org/1999/xlink"
   version="1.0"
   width="24"
   height="24"
   id="svg4840">
  <defs
     id="defs4842">
    <linearGradient
       id="linearGradient8838">
      <stop
         id="stop8840"
         style="stop-color:black;stop-opacity:1"
         offset="0" />
      <stop
         id="stop8842"
         style="stop-color:black;stop-opacity:0"
         offset="1" />
    </linearGradient>
    <radialGradient
       cx="62.625"
       cy="4.625"
       r="10.625"
       fx="62.625"
       fy="4.625"
       id="radialGradient5323"
       xlink:href="#linearGradient8838"
       gradientUnits="userSpaceOnUse"
       gradientTransform="matrix(1,0,0,0.341176,0,3.047059)" />
    <linearGradient
       id="linearGradient5354">
      <stop
         id="stop5356"
         style="stop-color:#3f3f3f;stop-opacity:1"
         offset="0" />
      <stop
         id="stop5358"
         style="stop-color:black;stop-opacity:1"
         offset="1" />
    </linearGradient>
    <linearGradient
       x1="19.176617"
       y1="13.479795"
       x2="19.176617"
       y2="45.358662"
       id="linearGradient5130"
       xlink:href="#linearGradient5354"
       gradientUnits="userSpaceOnUse"
       gradientTransform="matrix(0.4916775,0,0,0.4916774,0.6986745,-0.3018277)" />
    <linearGradient
       id="linearGradient37935">
      <stop
         id="stop37937"
         style="stop-color:#929292;stop-opacity:1"
         offset="0" />
      <stop
         id="stop37939"
         style="stop-color:#4a4a4a;stop-opacity:1"
         offset="1" />
    </linearGradient>
    <linearGradient
       x1="28.771276"
       y1="12.91806"
       x2="28.771276"
       y2="45.347591"
       id="linearGradient5128"
       xlink:href="#linearGradient37935"
       gradientUnits="userSpaceOnUse"
       gradientTransform="matrix(0.4916775,0,0,0.4916774,0.6986745,-0.3018277)" />
    <linearGradient
       id="linearGradient2145">
      <stop
         id="stop2147"
         style="stop-color:#fffffd;stop-opacity:1"
         offset="0" />
      <stop
         id="stop2149"
         style="stop-color:#cbcbc9;stop-opacity:1"
         offset="1" />
    </linearGradient>
    <radialGradient
       cx="11.901996"
       cy="10.045444"
       r="29.292715"
       fx="11.901996"
       fy="10.045444"
       id="radialGradient5350"
       xlink:href="#linearGradient2145"
       gradientUnits="userSpaceOnUse" />
    <linearGradient
       id="linearGradient7065">
      <stop
         id="stop7067"
         style="stop-color:white;stop-opacity:1"
         offset="0" />
      <stop
         id="stop7069"
         style="stop-color:white;stop-opacity:0"
         offset="1" />
    </linearGradient>
    <linearGradient
       x1="78.5"
       y1="16.40625"
       x2="83.03125"
       y2="16.4375"
       id="linearGradient12026"
       xlink:href="#linearGradient7065"
       gradientUnits="userSpaceOnUse"
       gradientTransform="matrix(1.6399715,0,0,1.7710483,-116.65334,9.4899309)" />
    <linearGradient
       id="linearGradient3747">
      <stop
         id="stop3749"
         style="stop-color:#494949;stop-opacity:1"
         offset="0" />
      <stop
         id="stop3751"
         style="stop-color:#888a85;stop-opacity:0"
         offset="1" />
    </linearGradient>
    <linearGradient
       x1="78.3125"
       y1="12.3125"
       x2="83.203491"
       y2="12.09283"
       id="linearGradient12024"
       xlink:href="#linearGradient3747"
       gradientUnits="userSpaceOnUse"
       gradientTransform="matrix(1.6399715,0,0,1.7710483,-116.65334,9.4899309)" />
    <linearGradient
       id="linearGradient7089">
      <stop
         id="stop7091"
         style="stop-color:#eeeeec;stop-opacity:1"
         offset="0" />
      <stop
         id="stop7093"
         style="stop-color:#eeeeec;stop-opacity:0"
         offset="1" />
    </linearGradient>
    <linearGradient
       x1="80.625"
       y1="14.0625"
       x2="83.21875"
       y2="13.875"
       id="linearGradient12022"
       xlink:href="#linearGradient7089"
       gradientUnits="userSpaceOnUse"
       gradientTransform="matrix(1.6399715,0,0,1.7710483,-116.65334,9.4899309)" />
    <linearGradient
       id="linearGradient7101">
      <stop
         id="stop7103"
         style="stop-color:black;stop-opacity:1"
         offset="0" />
      <stop
         id="stop7105"
         style="stop-color:black;stop-opacity:0"
         offset="1" />
    </linearGradient>
    <linearGradient
       x1="79.25"
       y1="15.75"
       x2="83.625"
       y2="14.78125"
       id="linearGradient12020"
       xlink:href="#linearGradient7101"
       gradientUnits="userSpaceOnUse" />
  </defs>
  <g
     id="layer1">
    <path
       d="m 73.25,4.625 a 10.625,3.625 0 1 1 -21.25,0 10.625,3.625 0 1 1 21.25,0 z"
       transform="matrix(1.0823528,0,0,1.2906765,-55.282346,13.351919)"
       id="path2774"
       style="opacity:0.56043958;fill:url(#radialGradient5323);fill-opacity:1;fill-rule:evenodd;stroke:none;stroke-width:0.99999988;marker:none;visibility:visible;display:inline;overflow:visible" />
    <path
       d="m 12.492145,1.4999735 c -5.5190685,0 -9.9921705,4.473101 -9.9921705,9.9921715 0,5.519069 4.473102,10.007882 9.9921705,10.007881 5.519068,0 10.007887,-4.488812 10.007882,-10.007881 0,-5.5190705 -4.488814,-9.9921715 -10.007882,-9.9921715 z"
       id="path2555"
       style="fill:url(#linearGradient5128);fill-opacity:1;stroke:url(#linearGradient5130);stroke-width:0.99994898;stroke-linecap:round;stroke-linejoin:round;stroke-miterlimit:4;stroke-opacity:1;stroke-dasharray:none;stroke-dashoffset:0" />
    <path
       d="m 31.160714,16.910715 a 14.910714,14.910714 0 1 1 -29.8214281,0 14.910714,14.910714 0 1 1 29.8214281,0 z"
       transform="matrix(0.5700599,0,0,0.5700599,3.2365269,1.8598792)"
       id="path35549"
       style="fill:url(#radialGradient5350);fill-opacity:1;fill-rule:evenodd;stroke:none" />
    <path
       d="m 12.5,6.4999999 c 0,-1.3926725 0,-1.5690116 0,-1.5690116"
       id="path2308"
       style="fill:#1f1f1f;fill-opacity:1;fill-rule:evenodd;stroke:#727272;stroke-width:1.00000012;stroke-linecap:round;stroke-linejoin:miter;stroke-miterlimit:4;stroke-opacity:1;stroke-dasharray:none" />
    <path
       d="M 12.194529,11.713855 17.596253,6.3122524"
       id="path2312"
       style="fill:none;stroke:black;stroke-width:0.5;stroke-linecap:round;stroke-linejoin:miter;stroke-miterlimit:4;stroke-opacity:1;stroke-dasharray:none" />
    <path
       d="M 13.071561,11.753718 9.4637681,8.1460064"
       id="path2314"
       style="fill:none;stroke:black;stroke-width:0.5;stroke-linecap:round;stroke-linejoin:miter;stroke-miterlimit:4;stroke-opacity:1;stroke-dasharray:none" />
    <path
       d="M 12.314125,11.434805 18.465311,9.7866365"
       id="path2316"
       style="fill:red;fill-rule:evenodd;stroke:red;stroke-width:0.5;stroke-linecap:round;stroke-linejoin:miter;stroke-miterlimit:4;stroke-opacity:1;stroke-dasharray:none" />
    <path
       d="m 12.5,18.284507 c 0,-1.392673 0,-1.569012 0,-1.569012"
       id="path5368"
       style="fill:#121212;fill-opacity:1;fill-rule:evenodd;stroke:#121212;stroke-width:1.00000012;stroke-linecap:round;stroke-linejoin:miter;stroke-miterlimit:4;stroke-opacity:1;stroke-dasharray:none" />
    <path
       d="m 17.5,11.5 c 1.392673,0 1.569013,0 1.569013,0"
       id="path5370"
       style="fill:#1f1f1f;fill-opacity:1;fill-rule:evenodd;stroke:#1f1f1f;stroke-width:1.00000012;stroke-linecap:round;stroke-linejoin:miter;stroke-miterlimit:4;stroke-opacity:1;stroke-dasharray:none" />
    <path
       d="m 5.7331351,11.5 c 1.3613563,0 1.5337301,0 1.5337301,0"
       id="path5372"
       style="fill:#1f1f1f;fill-opacity:1;fill-rule:evenodd;stroke:#5f5f5f;stroke-width:1.00000012;stroke-linecap:round;stroke-linejoin:miter;stroke-miterlimit:4;stroke-opacity:1;stroke-dasharray:none" />
    <g
       transform="matrix(0.5373686,0,0,0.5340745,1.9655643,-11.862146)"
       id="g12015">
      <path
         d="m 85,9.96875 c -4.313438,0 -8.144379,1.988611 -10.71875,5.0625 L 71.875,12.625 a 0.53130312,0.53130312 0 0 0 -0.90625,0.28125 l -2,10.5 a 0.53130312,0.53130312 0 0 0 0.625,0.625 l 10.5,-2 A 0.53130312,0.53130312 0 0 0 80.375,21.125 l -2.5,-2.5 c 1.634966,-2.162476 4.203208,-3.59375 7.125,-3.59375 0.06101,0 0.66768,-0.0067 1.25,0 0.58232,0.0067 1.231192,0.0319 1.21875,0.03125 a 0.53130312,0.53130312 0 0 0 0.5625,-0.53125 l 0,-4 A 0.53130312,0.53130312 0 0 0 87.53125,10 C 87.247954,9.9895391 85.221832,9.96875 85,9.96875 z"
         transform="matrix(1.6399715,0,0,1.7710483,-116.65334,11.260979)"
         id="path11284"
         style="opacity:0.1;fill:url(#linearGradient12020);fill-opacity:1;fill-rule:evenodd;stroke:none" />
      <path
         d="m 22.744245,28.085938 c -7.15205,0 -13.5330601,3.656917 -17.5784501,9.353349 L 0.60462492,32.513559 -2.6753151,51.109566 14.544385,47.567469 9.8807149,42.531051 c 2.8004201,-4.436903 7.5167801,-9.131968 12.8635301,-9.131968 0.27738,0 3.8261,0.03986 4.09993,0.05535 l 0,-5.313145 c -0.2755,-0.01099 -3.82196,-0.05535 -4.09993,-0.05535 z"
         id="path7007"
         style="fill:url(#linearGradient12022);fill-opacity:1;fill-rule:evenodd;stroke:url(#linearGradient12024);stroke-width:1.86665022;stroke-linecap:round;stroke-linejoin:round;stroke-miterlimit:10;stroke-opacity:1;stroke-dasharray:none;stroke-dashoffset:0.69999992" />
      <path
         d="m 22.744245,29.856986 c -6.6344,0 -12.45264,3.835166 -16.1974905,9.108404 -0.28081,0.410922 -0.7122,0.670949 -1.18347,0.71336 -0.47128,0.04241 -0.93657,-0.136919 -1.27648,-0.491979 L 1.9288036,36.830706 -0.22378477,48.705939 10.765669,46.270747 8.203337,43.898901 c -0.55379,-0.616146 -0.61859,-1.572518 -0.15374,-2.269156 3.09419,-4.902366 8.794238,-10.001711 14.694648,-10.001711 0.21143,0 2.7318,-0.01193 3.68994,0 0.18239,0.0023 0.24493,-0.0016 0.40999,0 l 0,-1.715703 c -1.15282,-0.0159 -4.0292,-0.05534 -4.09993,-0.05534 z"
         id="path7062"
         style="fill:none;stroke:url(#linearGradient12026);stroke-width:1.86665022;stroke-linecap:round;stroke-linejoin:round;stroke-miterlimit:10;stroke-opacity:1;stroke-dasharray:none;stroke-dashoffset:0.69999992" />
    </g>
  </g>
</svg>

<?xml version="1.0" encoding="UTF-8" standalone="no"?>
<!-- Created with Inkscape (http://www.inkscape.org/) -->
<svg
   xmlns:dc="http://purl.org/dc/elements/1.1/"
   xmlns:cc="http://creativecommons.org/ns#"
   xmlns:rdf="http://www.w3.org/1999/02/22-rdf-syntax-ns#"
   xmlns:svg="http://www.w3.org/2000/svg"
   xmlns="http://www.w3.org/2000/svg"
   xmlns:xlink="http://www.w3.org/1999/xlink"
   xmlns:sodipodi="http://sodipodi.sourceforge.net/DTD/sodipodi-0.dtd"
   xmlns:inkscape="http://www.inkscape.org/namespaces/inkscape"
   width="24"
   height="24"
   id="svg4840"
   sodipodi:version="0.32"
   inkscape:version="0.46"
   version="1.0"
   sodipodi:docname="document-open-recent.svg"
   inkscape:output_extension="org.inkscape.output.svg.inkscape">
  <defs
     id="defs4842">
    <linearGradient
       id="linearGradient8838"
       inkscape:collect="always">
      <stop
         id="stop8840"
         offset="0"
         style="stop-color:#000000;stop-opacity:1;" />
      <stop
         id="stop8842"
         offset="1"
         style="stop-color:#000000;stop-opacity:0;" />
    </linearGradient>
    <radialGradient
       inkscape:collect="always"
       xlink:href="#linearGradient8838"
       id="radialGradient5323"
       gradientUnits="userSpaceOnUse"
       gradientTransform="matrix(1,0,0,0.341176,0,3.047059)"
       cx="62.625"
       cy="4.625"
       fx="62.625"
       fy="4.625"
       r="10.625" />
    <linearGradient
       id="linearGradient5354">
      <stop
         style="stop-color:#3f3f3f;stop-opacity:1;"
         offset="0"
         id="stop5356" />
      <stop
         style="stop-color:#000000;stop-opacity:1;"
         offset="1"
         id="stop5358" />
    </linearGradient>
    <linearGradient
       inkscape:collect="always"
       xlink:href="#linearGradient5354"
       id="linearGradient5130"
       gradientUnits="userSpaceOnUse"
       gradientTransform="matrix(0.4916775,0,0,0.4916774,0.6986745,-0.3018277)"
       x1="19.176617"
       y1="13.479795"
       x2="19.176617"
       y2="45.358662" />
    <linearGradient
       id="linearGradient37935">
      <stop
         id="stop37937"
         offset="0"
         style="stop-color:#929292;stop-opacity:1;" />
      <stop
         id="stop37939"
         offset="1"
         style="stop-color:#4a4a4a;stop-opacity:1;" />
    </linearGradient>
    <linearGradient
       inkscape:collect="always"
       xlink:href="#linearGradient37935"
       id="linearGradient5128"
       gradientUnits="userSpaceOnUse"
       gradientTransform="matrix(0.4916775,0,0,0.4916774,0.6986745,-0.3018277)"
       x1="28.771276"
       y1="12.91806"
       x2="28.771276"
       y2="45.347591" />
    <linearGradient
       id="linearGradient2145">
      <stop
         style="stop-color:#fffffd;stop-opacity:1.0000000;"
         offset="0.0000000"
         id="stop2147" />
      <stop
         style="stop-color:#cbcbc9;stop-opacity:1.0000000;"
         offset="1.0000000"
         id="stop2149" />
    </linearGradient>
    <radialGradient
       inkscape:collect="always"
       xlink:href="#linearGradient2145"
       id="radialGradient5350"
       gradientUnits="userSpaceOnUse"
       cx="11.901996"
       cy="10.045444"
       fx="11.901996"
       fy="10.045444"
       r="29.292715" />
    <linearGradient
       inkscape:collect="always"
       id="linearGradient7065">
      <stop
         style="stop-color:#ffffff;stop-opacity:1;"
         offset="0"
         id="stop7067" />
      <stop
         style="stop-color:#ffffff;stop-opacity:0;"
         offset="1"
         id="stop7069" />
    </linearGradient>
    <linearGradient
       inkscape:collect="always"
       xlink:href="#linearGradient7065"
       id="linearGradient12026"
       gradientUnits="userSpaceOnUse"
       gradientTransform="matrix(1.6399715,0,0,1.7710483,-116.65334,9.4899309)"
       x1="78.5"
       y1="16.40625"
       x2="83.03125"
       y2="16.4375" />
    <linearGradient
       id="linearGradient3747"
       inkscape:collect="always">
      <stop
         id="stop3749"
         offset="0"
         style="stop-color:#494949;stop-opacity:1" />
      <stop
         id="stop3751"
         offset="1"
         style="stop-color:#888a85;stop-opacity:0;" />
    </linearGradient>
    <linearGradient
       inkscape:collect="always"
       xlink:href="#linearGradient3747"
       id="linearGradient12024"
       gradientUnits="userSpaceOnUse"
       gradientTransform="matrix(1.6399715,0,0,1.7710483,-116.65334,9.4899309)"
       x1="78.3125"
       y1="12.3125"
       x2="83.203491"
       y2="12.09283" />
    <linearGradient
       inkscape:collect="always"
       id="linearGradient7089">
      <stop
         style="stop-color:#eeeeec;stop-opacity:1;"
         offset="0"
         id="stop7091" />
      <stop
         style="stop-color:#eeeeec;stop-opacity:0;"
         offset="1"
         id="stop7093" />
    </linearGradient>
    <linearGradient
       inkscape:collect="always"
       xlink:href="#linearGradient7089"
       id="linearGradient12022"
       gradientUnits="userSpaceOnUse"
       gradientTransform="matrix(1.6399715,0,0,1.7710483,-116.65334,9.4899309)"
       x1="80.625"
       y1="14.0625"
       x2="83.21875"
       y2="13.875" />
    <linearGradient
       inkscape:collect="always"
       id="linearGradient7101">
      <stop
         style="stop-color:#000000;stop-opacity:1;"
         offset="0"
         id="stop7103" />
      <stop
         style="stop-color:#000000;stop-opacity:0;"
         offset="1"
         id="stop7105" />
    </linearGradient>
    <linearGradient
       inkscape:collect="always"
       xlink:href="#linearGradient7101"
       id="linearGradient12020"
       gradientUnits="userSpaceOnUse"
       x1="79.25"
       y1="15.75"
       x2="83.625"
       y2="14.78125" />
  </defs>
  <sodipodi:namedview
     id="base"
     pagecolor="#ffffff"
     bordercolor="#666666"
     borderopacity="1.0"
     inkscape:pageopacity="0.0"
     inkscape:pageshadow="2"
     inkscape:zoom="11.197802"
     inkscape:cx="16"
     inkscape:cy="16"
     inkscape:current-layer="layer1"
     showgrid="true"
     inkscape:grid-bbox="true"
     inkscape:document-units="px"
     inkscape:window-width="640"
     inkscape:window-height="720"
     inkscape:window-x="800"
     inkscape:window-y="88" />
  <metadata
     id="metadata4845">
    <rdf:RDF>
      <cc:Work
         rdf:about="">
        <dc:format>image/svg+xml</dc:format>
        <dc:type
           rdf:resource="http://purl.org/dc/dcmitype/StillImage" />
      </cc:Work>
    </rdf:RDF>
  </metadata>
  <g
     id="layer1"
     inkscape:label="Layer 1"
     inkscape:groupmode="layer">
    <path
       transform="matrix(1.0823528,0,0,1.2906765,-55.282346,13.351919)"
       d="M 73.25,4.625 A 10.625,3.625 0 1 1 52,4.625 A 10.625,3.625 0 1 1 73.25,4.625 z"
       sodipodi:ry="3.625"
       sodipodi:rx="10.625"
       sodipodi:cy="4.625"
       sodipodi:cx="62.625"
       id="path2774"
       style="opacity:0.56043958000000005;fill:url(#radialGradient5323);fill-opacity:1;fill-rule:evenodd;stroke:none;stroke-width:0.99999987999999995;stroke-linecap:butt;stroke-linejoin:round;marker:none;marker-start:none;marker-mid:none;marker-end:none;stroke-miterlimit:4;stroke-dasharray:none;stroke-dashoffset:0;stroke-opacity:1;visibility:visible;display:inline;overflow:visible"
       sodipodi:type="arc" />
    <path
       style="fill:url(#linearGradient5128);fill-opacity:1;stroke:url(#linearGradient5130);stroke-width:0.99994898000000021;stroke-linecap:round;stroke-linejoin:round;stroke-miterlimit:4;stroke-dasharray:none;stroke-dashoffset:0;stroke-opacity:1"
       d="M 12.492145,1.4999735 C 6.9730765,1.4999735 2.4999745,5.9730745 2.4999745,11.492145 C 2.4999745,17.011214 6.9730765,21.500027 12.492145,21.500026 C 18.011213,21.500026 22.500032,17.011214 22.500027,11.492145 C 22.500027,5.9730745 18.011213,1.4999735 12.492145,1.4999735 z"
       id="path2555" />
    <path
       sodipodi:type="arc"
       style="fill:url(#radialGradient5350);fill-opacity:1;fill-rule:evenodd;stroke:none;stroke-width:1.39591372000000002;stroke-linecap:round;stroke-linejoin:bevel;stroke-miterlimit:4;stroke-dasharray:none;stroke-dashoffset:0;stroke-opacity:1"
       id="path35549"
       sodipodi:cx="16.25"
       sodipodi:cy="16.910715"
       sodipodi:rx="14.910714"
       sodipodi:ry="14.910714"
       d="M 31.160714,16.910715 A 14.910714,14.910714 0 1 1 1.3392859,16.910715 A 14.910714,14.910714 0 1 1 31.160714,16.910715 z"
       transform="matrix(0.5700599,0,0,0.5700599,3.2365269,1.8598792)" />
    <path
       style="fill:#1f1f1f;fill-opacity:1;fill-rule:evenodd;stroke:#727272;stroke-width:1.00000011999999994;stroke-linecap:round;stroke-linejoin:miter;stroke-miterlimit:4;stroke-dasharray:none;stroke-opacity:1"
       d="M 12.5,6.4999999 C 12.5,5.1073274 12.5,4.9309883 12.5,4.9309883"
       id="path2308"
       sodipodi:nodetypes="cc" />
    <path
       style="fill:none;fill-rule:evenodd;stroke:#000000;stroke-width:0.50000000000000000;stroke-linecap:round;stroke-linejoin:miter;stroke-miterlimit:4;stroke-dasharray:none;stroke-opacity:1"
       d="M 12.194529,11.713855 L 17.596253,6.3122524"
       id="path2312" />
    <path
       style="fill:none;fill-rule:evenodd;stroke:#000000;stroke-width:0.50000000000000000;stroke-linecap:round;stroke-linejoin:miter;stroke-miterlimit:4;stroke-dasharray:none;stroke-opacity:1"
       d="M 13.071561,11.753718 L 9.4637681,8.1460064"
       id="path2314" />
    <path
       style="fill:#ff0000;fill-rule:evenodd;stroke:#ff0000;stroke-width:0.50000000000000000;stroke-linecap:round;stroke-linejoin:miter;stroke-miterlimit:4;stroke-dasharray:none;stroke-opacity:1"
       d="M 12.314125,11.434805 L 18.465311,9.7866365"
       id="path2316" />
    <path
       style="fill:#121212;fill-opacity:1;fill-rule:evenodd;stroke:#121212;stroke-width:1.00000011999999994;stroke-linecap:round;stroke-linejoin:miter;stroke-miterlimit:4;stroke-dasharray:none;stroke-opacity:1"
       d="M 12.5,18.284507 C 12.5,16.891834 12.5,16.715495 12.5,16.715495"
       id="path5368"
       sodipodi:nodetypes="cc" />
    <path
       style="fill:#1f1f1f;fill-opacity:1;fill-rule:evenodd;stroke:#1f1f1f;stroke-width:1.00000011999999994;stroke-linecap:round;stroke-linejoin:miter;stroke-miterlimit:4;stroke-dasharray:none;stroke-opacity:1"
       d="M 17.5,11.5 C 18.892673,11.5 19.069013,11.5 19.069013,11.5"
       id="path5370"
       sodipodi:nodetypes="cc" />
    <path
       style="fill:#1f1f1f;fill-opacity:1;fill-rule:evenodd;stroke:#5f5f5f;stroke-width:1.00000011999999994;stroke-linecap:round;stroke-linejoin:miter;stroke-miterlimit:4;stroke-dasharray:none;stroke-opacity:1"
       d="M 5.7331351,11.5 C 7.0944914,11.5 7.2668652,11.5 7.2668652,11.5"
       id="path5372"
       sodipodi:nodetypes="cc" />
    <g
       id="g12015"
       transform="matrix(0.5373686,0,0,0.5340745,1.9655643,-11.862146)">
      <path
         sodipodi:type="inkscape:offset"
         inkscape:radius="0.53125"
         inkscape:original="M 85 10.5 C 80.638919 10.5 76.747988 12.564832 74.28125 15.78125 L 71.5 13 L 69.5 23.5 L 80 21.5 L 77.15625 18.65625 C 78.863849 16.151009 81.739729 14.5 85 14.5 C 85.169139 14.5 87.333026 14.522505 87.5 14.53125 L 87.5 10.53125 C 87.332013 10.525047 85.169495 10.5 85 10.5 z "
         style="opacity:0.1;fill:url(#linearGradient12020);fill-opacity:1;fill-rule:evenodd;stroke:none;stroke-width:0.58676833;stroke-linecap:round;stroke-linejoin:round;stroke-miterlimit:10;stroke-dasharray:none;stroke-dashoffset:0.69999992;stroke-opacity:1"
         id="path11284"
         d="M 85,9.96875 C 80.686562,9.96875 76.855621,11.957361 74.28125,15.03125 L 71.875,12.625 C 71.735656,12.480659 71.526888,12.42712 71.335276,12.486585 C 71.143665,12.546051 71.001891,12.708379 70.96875,12.90625 L 68.96875,23.40625 C 68.934004,23.580378 68.988539,23.760353 69.114093,23.885907 C 69.239647,24.011461 69.419622,24.065996 69.59375,24.03125 L 80.09375,22.03125 C 80.291621,21.998109 80.453949,21.856335 80.513415,21.664724 C 80.57288,21.473112 80.519341,21.264344 80.375,21.125 L 77.875,18.625 C 79.509966,16.462524 82.078208,15.03125 85,15.03125 C 85.061007,15.03125 85.66768,15.024538 86.25,15.03125 C 86.83232,15.037962 87.481192,15.063152 87.46875,15.0625 C 87.614974,15.071101 87.758262,15.018952 87.864753,14.918378 C 87.971243,14.817804 88.031488,14.677727 88.03125,14.53125 L 88.03125,10.53125 C 88.031711,10.249642 87.812369,10.016591 87.53125,10 C 87.247954,9.9895391 85.221832,9.96875 85,9.96875 z"
         transform="matrix(1.6399715,0,0,1.7710483,-116.65334,11.260979)" />
      <path
         style="fill:url(#linearGradient12022);fill-opacity:1;fill-rule:evenodd;stroke:url(#linearGradient12024);stroke-width:1.86665022;stroke-linecap:round;stroke-linejoin:round;stroke-miterlimit:10;stroke-dasharray:none;stroke-dashoffset:0.69999992;stroke-opacity:1"
         d="M 22.744245,28.085938 C 15.592195,28.085938 9.2111849,31.742855 5.1657949,37.439287 L 0.60462492,32.513559 L -2.6753151,51.109566 L 14.544385,47.567469 L 9.8807149,42.531051 C 12.681135,38.094148 17.397495,33.399083 22.744245,33.399083 C 23.021625,33.399083 26.570345,33.43894 26.844175,33.454428 L 26.844175,28.141283 C 26.568675,28.130297 23.022215,28.085938 22.744245,28.085938 z"
         id="path7007"
         sodipodi:nodetypes="ccccccsccc" />
      <path
         style="fill:none;fill-opacity:1;fill-rule:evenodd;stroke:url(#linearGradient12026);stroke-width:1.86665022;stroke-linecap:round;stroke-linejoin:round;stroke-miterlimit:10;stroke-dasharray:none;stroke-dashoffset:0.69999992;stroke-opacity:1"
         d="M 22.744245,29.856986 C 16.109845,29.856986 10.291605,33.692152 6.5467545,38.96539 C 6.2659445,39.376312 5.8345545,39.636339 5.3632845,39.67875 C 4.8920045,39.721164 4.4267145,39.541831 4.0868045,39.186771 L 1.9288036,36.830706 L -0.22378477,48.705939 L 10.765669,46.270747 L 8.203337,43.898901 C 7.649547,43.282755 7.584747,42.326383 8.049597,41.629745 C 11.143787,36.727379 16.843835,31.628034 22.744245,31.628034 C 22.955675,31.628034 25.476045,31.616108 26.434185,31.628034 C 26.616575,31.630305 26.679115,31.626414 26.844175,31.628034 L 26.844175,29.912331 C 25.691355,29.896435 22.814975,29.856986 22.744245,29.856986 z"
         id="path7062"
         sodipodi:nodetypes="ccsccccccssccc" />
    </g>
  </g>
</svg>
